; Unblocking Program
; Generated by Mike Watts on 2016-01-09
; http://www.subdimension.co.uk


M127

G21 (Metric FTW)
G90 (Absolute Positioning)
M18 (Turn off steppers)
G92 X0 Y0 Z0 A0 B0 (Declare the current position to be 0,0,0,0,0)

G161 Y X F2500
G92 X0 Y0 Z0 A0 B0

G1 X5.0 Y5.0 Z-5.0 F450

G162 Z F450 
G161 Y X F2500 (Home X axis maximum, go until reaching the end stop.)
G92 Z142.4 ( Set Bed Height Here )
G92 X-75 Y-75 (set zero for X and Y)

M104 S222 T0 ; set temperature

M108 R8.0 (Extruder speed = max)
M6 T0 (wait for toolhead parts, nozzle, HBP, etc., to reach temperature)

M101 (Turn on Extruder)
G04 P5000 (Wait for 5 seconds for flow)

M103 ; extruder off

M104 S225 T0 ; set temperature
M6 T0 (wait for toolhead parts, nozzle, HBP, etc., to reach temperature)

M101 (Turn on Extruder)
G04 P5000 (Wait for 5 seconds for flow)

M104 S215 T0 ; set temperature

M101 (Turn on Extruder)
G04 P15000 (Wait for 15 seconds for flow)

M103 ; extruder off

M127
M104 S0 T0 (Turn off extruder heater)

; Finish Program

G92 Z0.0 
G1 Z1.0 F145 
G1 X0.0 F3300.0       
G1 X0.0 Y75.0 F3300.0 
G1 Z140 F450.0

M18 (Turn off steppers)

